public/fideos.svg

<svg width="393" height="145" viewBox="0 0 393 145" fill="none" xmlns="http://www.w3.org/2000/svg">
<g clip-path="url(#clip0_2_2342)">
<path d="M137.241 112.919C58.2866 104.118 41.8386 4.50189 41.8386 4.50189C41.8386 4.50189 115.576 -13.5374 163.518 -12.1629C204.939 -10.9754 268.082 5.87805 268.082 5.87805C268.082 5.87805 265.231 127.187 137.241 112.919Z" fill="#FCC812"/>
<path d="M40.9915 2.29975C41.8486 2.10153 42.7387 2.09039 43.6025 2.26708C44.4664 2.44377 45.2843 2.80426 46.0018 3.32458C46.7194 3.84488 47.3202 4.51303 47.7644 5.28479C48.2085 6.05656 48.4858 6.91419 48.5779 7.80069C49.0305 12.1368 49.748 16.442 50.726 20.6914C63.6607 76.8939 126.225 118.77 181.698 106.004C226.318 95.7345 259.1 56.2748 261.421 10.0536C261.463 9.23013 261.664 8.42392 262.013 7.68092C262.363 6.93792 262.854 6.27269 263.458 5.72322C264.063 5.17376 264.769 4.75083 265.537 4.47855C266.305 4.20628 267.119 4.08996 267.933 4.13633C268.747 4.18269 269.544 4.39075 270.281 4.7487C271.017 5.10664 271.677 5.60743 272.224 6.22246C272.77 6.83749 273.192 7.55475 273.466 8.33323C273.739 9.11172 273.859 9.93622 273.818 10.7596C271.215 62.5431 234.496 106.735 184.514 118.238C122.381 132.537 53.1262 86.4149 38.6375 23.4606C37.541 18.7024 36.7375 13.8816 36.2318 9.02594C36.078 7.5061 36.4764 5.98488 37.3525 4.74684C38.2285 3.5088 39.5222 2.63886 40.9915 2.29975Z" fill="#00387D"/>
<path d="M77.2113 -1.49715C77.5021 -1.56589 77.7978 -1.61195 78.096 -1.63485C79.7146 -1.75404 81.3262 -1.19538 82.5767 -0.0816427C83.8271 1.0321 84.6142 2.60981 84.7649 4.3049C85.0696 7.74223 85.6122 11.1573 86.3885 14.5232C95.2634 53.0851 132.346 77.5926 169.051 69.1452C184.076 65.747 197.441 57.0881 206.956 44.5871C216.471 32.0861 221.572 16.4842 221.424 0.337903C221.418 -0.504099 221.571 -1.33542 221.874 -2.10859C222.177 -2.88176 222.624 -3.58167 223.19 -4.16829C223.756 -4.75492 224.429 -5.21674 225.171 -5.52752C225.913 -5.83829 226.709 -5.99186 227.514 -5.97947C228.32 -5.96708 229.119 -5.78899 229.865 -5.45532C230.611 -5.12165 231.29 -4.63897 231.864 -4.03482C232.437 -3.43067 232.894 -2.71686 233.207 -1.93421C233.52 -1.15156 233.685 -0.315338 233.69 0.526671C233.958 39.8735 208.555 73.2439 171.918 81.6757C128.64 91.6359 84.9157 62.7433 74.4504 17.2707C73.5359 13.2996 72.8955 9.27088 72.5339 5.21596C72.3993 3.67847 72.798 2.15377 73.657 0.920927C74.516 -0.311909 75.7778 -1.17032 77.2113 -1.49715Z" fill="#00387D"/>
<path d="M108.38 -4.91476C108.724 -4.9951 109.074 -5.04195 109.428 -5.0547C111.05 -5.12949 112.648 -4.527 113.871 -3.37966C115.094 -2.23232 115.841 -0.634064 115.949 1.06394C116.089 3.232 116.406 5.38764 116.897 7.50715C119.061 16.9166 124.481 25.2223 132.102 30.8061C139.723 36.3899 148.999 38.8518 158.121 37.7121C167.244 36.5724 175.56 31.9128 181.451 24.6411C187.341 17.3694 190.383 8.00651 189.983 -1.62347C189.947 -2.46527 190.069 -3.30284 190.343 -4.08823C190.617 -4.87361 191.038 -5.59142 191.581 -6.20083C192.124 -6.81023 192.779 -7.29923 193.508 -7.63988C194.238 -7.98053 195.027 -8.16616 195.832 -8.1862C196.636 -8.20623 197.44 -8.06026 198.197 -7.75662C198.955 -7.45299 199.651 -6.99762 200.245 -6.41654C200.84 -5.83546 201.322 -5.14011 201.664 -4.37005C202.005 -3.6 202.2 -2.77036 202.237 -1.92856C202.774 10.8891 198.731 23.3537 190.895 33.0359C183.059 42.7182 171.991 48.9243 159.849 50.4448C147.707 51.9652 135.361 48.6912 125.216 41.2605C115.071 33.8299 107.855 22.7752 104.974 10.251C104.32 7.41623 103.897 4.53334 103.711 1.63385C103.615 0.125413 104.031 -1.35848 104.885 -2.55645C105.739 -3.75441 106.977 -4.58955 108.38 -4.91476Z" fill="#00387D"/>
<path d="M272.833 75.328C211.914 68.5373 199.223 -8.32354 199.223 -8.32354C199.223 -8.32354 256.116 -22.2421 293.108 -21.1816C325.067 -20.2654 373.786 -7.26173 373.786 -7.26173C373.786 -7.26173 371.586 86.3363 272.833 75.328Z" fill="#FCC812"/>
<path d="M198.57 -10.0228C199.231 -10.1757 199.918 -10.1843 200.584 -10.048C201.251 -9.91167 201.882 -9.63353 202.435 -9.23207C202.989 -8.83062 203.453 -8.3151 203.795 -7.71963C204.138 -7.12416 204.352 -6.46244 204.423 -5.77843C204.772 -2.43283 205.326 0.888908 206.08 4.16763C216.061 47.5318 264.333 79.8425 307.134 69.992C341.562 62.0686 366.856 31.6227 368.647 -4.0402C368.678 -4.67552 368.834 -5.29758 369.103 -5.87086C369.373 -6.44413 369.752 -6.9574 370.218 -7.38135C370.685 -7.80529 371.23 -8.13162 371.822 -8.34169C372.414 -8.55178 373.042 -8.64152 373.671 -8.60575C374.299 -8.56998 374.914 -8.40944 375.482 -8.13327C376.05 -7.85709 376.56 -7.47069 376.981 -6.99616C377.403 -6.52162 377.729 -5.9682 377.94 -5.36755C378.151 -4.76689 378.243 -4.13072 378.211 -3.4954C376.203 36.4591 347.872 70.5559 309.307 79.4314C261.368 90.4644 207.932 54.8779 196.753 6.30426C195.907 2.63302 195.287 -1.08663 194.897 -4.83308C194.779 -6.00573 195.086 -7.17947 195.762 -8.1347C196.438 -9.08994 197.436 -9.76116 198.57 -10.0228Z" fill="#00387D"/>
<path d="M226.516 -12.9523C226.74 -13.0053 226.968 -13.0408 227.198 -13.0585C228.447 -13.1505 229.691 -12.7194 230.655 -11.8601C231.62 -11.0008 232.227 -9.78343 232.344 -8.47556C232.579 -5.82343 232.998 -3.18844 233.596 -0.591457C240.444 29.1618 269.056 48.071 297.376 41.5532C308.969 38.9313 319.281 32.2503 326.623 22.6049C333.964 12.9595 337.9 0.921633 337.785 -11.5364C337.781 -12.186 337.899 -12.8275 338.133 -13.424C338.367 -14.0206 338.712 -14.5606 339.148 -15.0132C339.585 -15.4658 340.104 -15.8222 340.676 -16.062C341.249 -16.3017 341.863 -16.4202 342.485 -16.4107C343.106 -16.4011 343.723 -16.2637 344.298 -16.0063C344.874 -15.7488 345.398 -15.3764 345.841 -14.9102C346.283 -14.4441 346.635 -13.8933 346.877 -13.2895C347.119 -12.6856 347.246 -12.0404 347.25 -11.3907C347.457 18.9681 327.856 44.7157 299.588 51.2214C266.197 58.9064 232.46 36.6137 224.385 1.52843C223.68 -1.53551 223.186 -4.64396 222.907 -7.77262C222.803 -8.95889 223.11 -10.1353 223.773 -11.0865C224.436 -12.0377 225.41 -12.7001 226.516 -12.9523Z" fill="#00387D"/>
<path d="M250.565 -15.5892C250.83 -15.6512 251.1 -15.6873 251.373 -15.6972C252.624 -15.7549 253.858 -15.29 254.801 -14.4048C255.745 -13.5195 256.322 -12.2864 256.405 -10.9762C256.513 -9.30343 256.757 -7.6402 257.136 -6.00485C258.805 1.25521 262.988 7.66364 268.868 11.9719C274.748 16.2802 281.905 18.1797 288.943 17.3004C295.982 16.421 302.399 12.8258 306.944 7.2152C311.488 1.6046 313.835 -5.61956 313.527 -13.0498C313.499 -13.6993 313.593 -14.3455 313.805 -14.9515C314.016 -15.5575 314.341 -16.1113 314.76 -16.5815C315.179 -17.0517 315.684 -17.429 316.247 -17.6918C316.81 -17.9547 317.419 -18.0979 318.04 -18.1134C318.66 -18.1288 319.281 -18.0162 319.865 -17.7819C320.449 -17.5476 320.986 -17.1963 321.445 -16.7479C321.904 -16.2996 322.276 -15.7631 322.539 -15.1689C322.803 -14.5748 322.953 -13.9347 322.982 -13.2852C323.396 -3.39543 320.277 6.22185 314.231 13.6924C308.185 21.1629 299.645 25.9514 290.277 27.1245C280.908 28.2977 271.382 25.7715 263.555 20.0382C255.727 14.305 250.16 5.77555 247.937 -3.88779C247.432 -6.075 247.106 -8.29935 246.962 -10.5365C246.888 -11.7004 247.209 -12.8453 247.868 -13.7696C248.527 -14.6939 249.482 -15.3383 250.565 -15.5892Z" fill="#00387D"/>
<path d="M65.3303 67.8034C15.3052 62.2269 4.88376 -0.889579 4.88376 -0.889579C4.88376 -0.889579 51.6033 -12.3192 81.9797 -11.4484C108.224 -10.696 148.231 -0.0176501 148.231 -0.0176501C148.231 -0.0176501 146.425 76.8431 65.3303 67.8034Z" fill="#FCC812"/>
<path d="M4.34693 -2.28493C4.89 -2.41053 5.45395 -2.41758 6.00128 -2.30563C6.54862 -2.19368 7.06682 -1.96527 7.52146 -1.63561C7.97611 -1.30594 8.35679 -0.88261 8.63821 -0.393621C8.91963 0.095361 9.09533 0.638761 9.15367 1.20045C9.44045 3.94779 9.89501 6.67553 10.5147 9.36796C18.7101 44.9777 58.3506 71.5106 93.4981 63.4215C121.769 56.9151 142.54 31.9135 144.011 2.62785C144.037 2.10613 144.164 1.59532 144.386 1.12455C144.607 0.653789 144.918 0.232306 145.301 -0.115831C145.684 -0.463973 146.132 -0.73194 146.618 -0.904453C147.105 -1.07697 147.62 -1.15066 148.136 -1.12129C148.652 -1.09191 149.157 -0.960086 149.624 -0.733291C150.09 -0.506501 150.509 -0.189204 150.855 0.20048C151.201 0.59016 151.469 1.04461 151.642 1.53786C151.815 2.03111 151.891 2.55351 151.865 3.07523C150.216 35.8851 126.951 63.8847 95.2821 71.173C55.9153 80.2331 12.0355 51.0102 2.85548 11.1225C2.16071 8.10776 1.65163 5.05327 1.33118 1.97676C1.23372 1.0138 1.48617 0.0499502 2.04125 -0.734467C2.59632 -1.51888 3.41602 -2.07008 4.34693 -2.28493Z" fill="#00387D"/>
<path d="M27.2957 -4.69056C27.4799 -4.73412 27.6673 -4.76329 27.8562 -4.77781C28.8818 -4.85332 29.9029 -4.49936 30.6951 -3.7937C31.4874 -3.08803 31.9861 -2.0884 32.0816 -1.0144C32.2747 1.16348 32.6185 3.32728 33.1103 5.45987C38.7334 29.8926 62.2291 45.4205 85.485 40.0682C95.0048 37.9152 103.473 32.4289 109.502 24.5083C115.53 16.5877 118.762 6.70239 118.668 -3.52788C118.665 -4.06137 118.762 -4.58809 118.954 -5.07797C119.146 -5.56785 119.429 -6.01131 119.787 -6.38299C120.146 -6.75467 120.572 -7.04729 121.042 -7.24419C121.512 -7.4411 122.017 -7.5384 122.527 -7.53055C123.038 -7.5227 123.544 -7.40986 124.016 -7.19845C124.489 -6.98704 124.92 -6.68121 125.283 -6.29842C125.646 -5.91563 125.936 -5.46337 126.134 -4.96748C126.333 -4.4716 126.437 -3.94177 126.44 -3.40827C126.61 21.5218 110.515 42.6652 87.3016 48.0075C59.881 54.3183 32.1771 36.012 25.5463 7.20068C24.967 4.68464 24.5611 2.13203 24.3321 -0.43715C24.2468 -1.4113 24.4994 -2.37735 25.0437 -3.15847C25.5879 -3.9396 26.3874 -4.48348 27.2957 -4.69056Z" fill="#00387D"/>
<path d="M47.0443 -6.85629C47.262 -6.9072 47.4842 -6.93688 47.708 -6.94495C48.7358 -6.99234 49.7484 -6.61062 50.5233 -5.88366C51.2981 -5.1567 51.7718 -4.14406 51.8401 -3.06821C51.9288 -1.69453 52.1296 -0.328721 52.4403 1.01419C53.8116 6.97601 57.246 12.2385 62.0746 15.7763C66.9032 19.3142 72.7801 20.874 78.5602 20.152C84.3402 19.4299 89.6096 16.4775 93.3416 11.8702C97.0735 7.26292 99.0008 1.33059 98.7479 -4.77094C98.7248 -5.3043 98.8022 -5.83499 98.9759 -6.33261C99.1496 -6.83022 99.416 -7.28503 99.7601 -7.67114C100.104 -8.05726 100.519 -8.36709 100.981 -8.58292C101.443 -8.79876 101.944 -8.91637 102.453 -8.92907C102.963 -8.94176 103.472 -8.84927 103.952 -8.65689C104.432 -8.46451 104.873 -8.17599 105.25 -7.80782C105.627 -7.43965 105.932 -6.99907 106.149 -6.51117C106.365 -6.02326 106.488 -5.49761 106.512 -4.96424C106.852 3.157 104.291 11.0545 99.3256 17.1892C94.3606 23.3238 87.3483 27.256 79.6551 28.2193C71.9619 29.1827 64.1391 27.1083 57.7115 22.4003C51.2838 17.6922 46.7118 10.688 44.8864 2.75268C44.4716 0.956587 44.2038 -0.870005 44.0859 -2.70711C44.0252 -3.66286 44.2886 -4.60305 44.8298 -5.36207C45.371 -6.1211 46.1552 -6.65024 47.0443 -6.85629Z" fill="#00387D"/>
</g>
<defs>
<clipPath id="clip0_2_2342">
<rect width="393" height="145" fill="white"/>
</clipPath>
</defs>
</svg>

<svg xmlns="http://www.w3.org/2000/svg" width="393" height="145" fill="none"><g clip-path="url(#a)"><path fill="#FCC812" d="M137.24 112.92C58.3 104.12 41.84 4.5 41.84 4.5s73.74-18.04 121.68-16.66c41.42 1.18 104.56 18.04 104.56 18.04s-2.85 121.3-130.84 107.04Z"/><path fill="#00387D" d="M41 2.3a6.13 6.13 0 0 1 5 1.02 6.3 6.3 0 0 1 2.58 4.48 107 107 0 0 0 2.15 12.9c12.93 56.2 75.5 98.07 130.97 85.3 44.62-10.27 77.4-49.73 79.72-95.95a6.34 6.34 0 0 1 2.04-4.33 6.15 6.15 0 0 1 8.76.5 6.36 6.36 0 0 1 1.6 4.54c-2.6 51.78-39.32 95.97-89.3 107.48-62.14 14.3-131.4-31.83-145.88-94.78-1.1-4.76-1.9-9.58-2.4-14.43a6.3 6.3 0 0 1 1.11-4.28A6.15 6.15 0 0 1 41 2.3Z"/><path fill="#00387D" d="M77.21-1.5a6.07 6.07 0 0 1 5.37 1.42 6.67 6.67 0 0 1 2.18 4.38c.31 3.44.85 6.86 1.63 10.22 8.87 38.57 45.96 63.07 82.66 54.63a65.93 65.93 0 0 0 37.9-24.56A71.95 71.95 0 0 0 221.43.34a6.58 6.58 0 0 1 1.77-4.5 5.94 5.94 0 0 1 4.32-1.82c.81.01 1.6.2 2.36.52a6.32 6.32 0 0 1 3.34 3.53c.31.78.47 1.61.48 2.46.27 39.34-25.13 72.71-61.77 81.15-43.28 9.96-87-18.94-97.47-64.4-.91-3.98-1.55-8-1.92-12.06a6.52 6.52 0 0 1 1.13-4.3A5.95 5.95 0 0 1 77.2-1.5Z"/><path fill="#00387D" d="M108.38-4.91a6.1 6.1 0 0 1 5.5 1.54 6.68 6.68 0 0 1 2.07 4.43c.14 2.17.46 4.33.95 6.45a39.98 39.98 0 0 0 15.2 23.3 36.38 36.38 0 0 0 26.02 6.9 35.7 35.7 0 0 0 23.33-13.07 39.14 39.14 0 0 0 8.53-26.26 6.63 6.63 0 0 1 1.6-4.58 5.96 5.96 0 0 1 4.25-1.99 6.26 6.26 0 0 1 4.41 1.77 6.6 6.6 0 0 1 2 4.5 52.1 52.1 0 0 1-11.34 34.96 47.5 47.5 0 0 1-31.05 17.4 48.41 48.41 0 0 1-34.63-9.18 53.21 53.21 0 0 1-20.25-31 53.6 53.6 0 0 1-1.26-8.63c-.1-1.5.32-2.99 1.18-4.19a5.94 5.94 0 0 1 3.49-2.35Z"/><path fill="#FCC812" d="M272.83 75.33c-60.92-6.8-73.6-83.65-73.6-83.65s56.89-13.92 93.88-12.86c31.96.91 80.68 13.92 80.68 13.92s-2.2 93.6-100.96 82.59Z"/><path fill="#00387D" d="M198.57-10.02a4.73 4.73 0 0 1 3.87.79 4.85 4.85 0 0 1 1.98 3.45c.35 3.35.9 6.67 1.66 9.95 9.98 43.36 58.25 75.67 101.05 65.82 34.43-7.92 59.73-38.37 61.52-74.03a4.87 4.87 0 0 1 1.57-3.34 4.75 4.75 0 0 1 7.72 2.01c.21.6.3 1.24.27 1.87-2 39.96-30.34 74.06-68.9 82.93C261.37 90.46 207.93 54.88 196.75 6.3a92.04 92.04 0 0 1-1.85-11.13 4.87 4.87 0 0 1 .86-3.3 4.75 4.75 0 0 1 2.81-1.9Z"/><path fill="#00387D" d="M226.52-12.95a4.68 4.68 0 0 1 4.14 1.1 5.15 5.15 0 0 1 1.68 3.37c.24 2.66.66 5.3 1.26 7.89 6.84 29.75 35.46 48.66 63.78 42.14a50.87 50.87 0 0 0 29.24-18.95 55.51 55.51 0 0 0 11.17-34.14 5.09 5.09 0 0 1 1.36-3.47 4.6 4.6 0 0 1 3.34-1.4 4.61 4.61 0 0 1 3.35 1.5 5.13 5.13 0 0 1 1.41 3.52c.2 30.36-19.4 56.1-47.66 62.61-33.4 7.69-67.13-14.6-75.2-49.7a68.7 68.7 0 0 1-1.48-9.3c-.1-1.18.2-2.36.86-3.3a4.59 4.59 0 0 1 2.75-1.87Z"/><path fill="#00387D" d="M250.56-15.59a4.7 4.7 0 0 1 4.24 1.18 5.16 5.16 0 0 1 1.6 3.43c.11 1.68.36 3.34.74 4.98a30.85 30.85 0 0 0 11.73 17.97 28.07 28.07 0 0 0 20.07 5.33 27.55 27.55 0 0 0 18-10.08 30.2 30.2 0 0 0 6.59-20.27 5.1 5.1 0 0 1 1.23-3.53 4.6 4.6 0 0 1 3.28-1.53 4.6 4.6 0 0 1 3.4 1.36 5.08 5.08 0 0 1 1.54 3.46 40.2 40.2 0 0 1-8.75 26.98 36.66 36.66 0 0 1-23.95 13.43 37.35 37.35 0 0 1-26.72-7.08A41.06 41.06 0 0 1 247.94-3.9c-.5-2.19-.83-4.4-.98-6.65-.07-1.16.25-2.3.9-3.23a4.58 4.58 0 0 1 2.7-1.82Z"/><path fill="#FCC812" d="M65.33 67.8C15.31 62.23 4.88-.89 4.88-.89s46.72-11.43 77.1-10.56c26.24.75 66.25 11.43 66.25 11.43s-1.8 76.86-82.9 67.82Z"/><path fill="#00387D" d="M4.35-2.28a3.89 3.89 0 0 1 3.17.64A4 4 0 0 1 9.15 1.2a67.8 67.8 0 0 0 1.36 8.17c8.2 35.6 47.84 62.14 82.99 54.05 28.27-6.5 49.04-31.5 50.51-60.8a3.99 3.99 0 0 1 2.6-3.52 3.88 3.88 0 0 1 4.24 1.1 4.02 4.02 0 0 1 1.02 2.88c-1.65 32.8-24.92 60.8-56.59 68.1C55.92 80.22 12.04 51 2.86 11.11a75.6 75.6 0 0 1-1.53-9.14 4 4 0 0 1 .71-2.71 3.9 3.9 0 0 1 2.3-1.55Z"/><path fill="#00387D" d="m27.3-4.7.56-.08a3.85 3.85 0 0 1 2.84.99c.79.7 1.29 1.7 1.38 2.78.2 2.17.54 4.34 1.03 6.47 5.62 24.43 29.12 39.96 52.38 34.6a41.77 41.77 0 0 0 24.01-15.55 45.6 45.6 0 0 0 9.17-28.04 4.19 4.19 0 0 1 1.12-2.85 3.77 3.77 0 0 1 2.74-1.15 3.78 3.78 0 0 1 2.75 1.23 4.2 4.2 0 0 1 1.16 2.9c.17 24.92-15.92 46.07-39.14 51.4-27.42 6.32-55.12-11.99-61.75-40.8a56.34 56.34 0 0 1-1.22-7.64c-.08-.97.17-1.94.71-2.72a3.77 3.77 0 0 1 2.26-1.53Z"/><path fill="#00387D" d="M47.04-6.86a3.86 3.86 0 0 1 3.48.97 4.24 4.24 0 0 1 1.32 2.82 25.33 25.33 0 0 0 10.23 18.84 23.05 23.05 0 0 0 16.49 4.38 22.62 22.62 0 0 0 14.78-8.28 24.8 24.8 0 0 0 5.4-16.64 4.2 4.2 0 0 1 1.02-2.9 3.78 3.78 0 0 1 2.7-1.26 3.77 3.77 0 0 1 2.79 1.12 4.2 4.2 0 0 1 1.26 2.85 33 33 0 0 1-7.18 22.15 30.1 30.1 0 0 1-19.67 11.03A30.67 30.67 0 0 1 57.7 22.4 33.72 33.72 0 0 1 44.9 2.75c-.42-1.8-.69-3.62-.8-5.46-.06-.95.2-1.9.74-2.65a3.77 3.77 0 0 1 2.21-1.5Z"/></g><defs><clipPath id="a"><path fill="#fff" d="M0 0h393v145H0z"/></clipPath></defs></svg>
